build/img/svg/odigo-logo.svg

<svg width="82" height="31" viewBox="0 0 82 31" fill="none" xmlns="http://www.w3.org/2000/svg">
<path fill-rule="evenodd" clip-rule="evenodd" d="M81.458 12.0851C81.0914 10.9164 80.5812 9.85893 79.8639 8.93664C79.1465 8.01436 78.2698 7.34649 77.2336 6.84559C76.9387 6.68658 76.58 6.52756 76.2771 6.44806C76.2771 6.44806 76.1655 6.38445 76.0619 6.38445C76.0141 6.38445 75.9583 6.38445 75.9025 6.32879C75.8627 6.32879 75.8069 6.32879 75.8069 6.27314L75.0497 6.11412C74.4917 6.01871 73.7744 5.97101 72.9454 6.01871C71.718 6.07437 70.634 6.33675 69.6775 6.78199C68.6413 7.29084 67.7646 8.0064 67.0472 8.86509C66.3299 9.78737 65.8197 10.7971 65.4531 12.0215C65.1024 13.1823 64.943 14.5022 64.943 15.822C64.943 17.1975 65.1024 18.4696 65.4611 19.6384C65.8277 20.8071 66.3936 21.8646 67.0552 22.7392C67.5733 23.3514 68.1312 23.8523 68.8087 24.3134C69.1116 24.5201 69.3666 24.6712 69.6855 24.8223H69.7253C69.7253 24.8223 69.7731 24.8223 69.7731 24.87C69.8073 24.87 69.8232 24.8859 69.8379 24.9008C69.8506 24.9136 69.8625 24.9256 69.8847 24.9256C70.4028 25.18 70.9687 25.3232 71.5825 25.4345C73.3758 25.7843 74.9142 25.5378 74.9142 25.5378C75.7351 25.4345 76.5083 25.18 77.2256 24.87C78.3017 24.3611 79.1704 23.6535 79.8958 22.7869C80.6131 21.9282 81.1232 20.8548 81.4899 19.6861C81.8406 18.5173 82 17.2452 82 15.8697C82 14.5022 81.7928 13.2301 81.4819 12.0533L81.458 12.0851ZM69.4464 13.1983C69.6536 12.4032 69.9086 11.632 70.2673 11.0197C70.626 10.4155 71.0883 9.90664 71.5984 9.5568C72.1165 9.19902 72.7302 9.00025 73.3918 9.00025C74.0613 9.00025 74.6272 9.14336 75.1453 9.50115C75.6554 9.85098 76.0619 10.2962 76.4206 10.8687C76.7793 11.4809 77.0423 12.1408 77.2416 12.9518C77.4568 13.7628 77.5604 14.5817 77.5604 15.496V15.7981C77.5604 16.7125 77.4568 17.6268 77.3053 18.4378C77.0981 19.2567 76.843 19.9643 76.4844 20.5845C76.1257 21.1888 75.6634 21.642 75.1453 21.9997C74.6352 22.3575 74.0294 22.5086 73.3519 22.5086C72.6824 22.5086 72.0766 22.3496 71.5586 21.9997C71.0405 21.642 70.5782 21.1888 70.2195 20.5686C69.8529 19.9643 69.5978 19.2567 69.3906 18.4378C69.1913 17.6268 69.1355 16.7125 69.1355 15.7981C69.1913 14.9236 69.2949 14.0172 69.4543 13.2062L69.4464 13.1983ZM58.1999 25.7127L56.2072 27.9946L56 28.2013L56.2072 31H59.2839L62.5199 27.3904V15.9095L62.4243 15.0349L58.1999 17.2134V25.7127Z" fill="white"/>
<path fill-rule="evenodd" clip-rule="evenodd" d="M32.2789 5.22177L30.2657 3.00409L30 2.81535L30.2094 0L33.3097 0.0471846L36.6435 3.61749V15.2328L36.5469 15.8776L32.2789 13.6757V5.22177ZM60.8499 8.34382C61.5747 9.25606 62.09 10.302 62.4605 11.458L62.4766 11.4265C62.8389 12.5904 63 13.8487 63 15.2013C63 16.5618 62.8389 17.8201 62.4846 18.9761C62.1142 20.1321 61.5988 21.1938 60.8741 22.0431C60.1493 22.9003 59.2635 23.6002 58.1764 24.1035C57.4517 24.4102 56.6706 24.6618 55.8411 24.7641C55.8411 24.7641 54.287 25.0079 52.4751 24.6618C51.8551 24.5517 51.2833 24.4102 50.7679 24.1585C50.7387 24.1585 50.7246 24.1437 50.7111 24.1294C50.6985 24.1162 50.6865 24.1035 50.6632 24.1035C50.6632 24.0563 50.6069 24.0563 50.6069 24.0563H50.5666C50.2445 23.9069 49.9868 23.7575 49.6808 23.553C49.0044 23.0969 48.4326 22.6014 47.9092 21.9959C47.2408 21.1309 46.6691 20.0849 46.2987 18.9289C45.9444 17.7729 45.7833 16.5146 45.7833 15.1541C45.7833 13.8487 45.9363 12.5433 46.2906 11.3951C46.6611 10.184 47.1764 9.18528 47.9012 8.27304C48.6259 7.42372 49.5117 6.71595 50.5586 6.21265C51.5249 5.77226 52.6201 5.51274 53.8602 5.45769C54.6977 5.41051 55.4224 5.45769 55.9861 5.55206L56.7511 5.70934C56.7511 5.76439 56.8075 5.76439 56.8477 5.76439C56.9122 5.81944 56.9605 5.81944 57.0088 5.81944C57.1135 5.81944 57.2262 5.88235 57.2262 5.88235C57.5322 5.96099 57.8946 6.11828 58.1925 6.27556C59.2394 6.771 60.1252 7.43158 60.8499 8.34382ZM51.2028 10.4042C50.8404 11.0098 50.5827 11.7726 50.3814 12.559L50.3895 12.5668C50.1828 13.3588 50.1252 14.2427 50.0695 15.0975V15.0975L50.0674 15.1305C50.0674 16.0349 50.1157 16.9393 50.325 17.7414C50.5344 18.5514 50.7921 19.2513 51.1545 19.849C51.5168 20.4624 51.9839 20.9107 52.4993 21.2645C53.0227 21.6106 53.6428 21.7679 54.3272 21.7679C54.9956 21.7679 55.6237 21.6184 56.1391 21.2645C56.6545 20.9107 57.1215 20.4624 57.4758 19.8647C57.8382 19.2513 58.104 18.5514 58.3053 17.7414C58.4663 16.9393 58.5791 16.0349 58.5791 15.1305V14.8317C58.5791 13.9273 58.4663 13.1173 58.257 12.3152C58.0476 11.5131 57.7899 10.8603 57.4275 10.2548C57.0652 9.68858 56.6464 9.24819 56.1391 8.90217C55.6157 8.54829 55.0439 8.40673 54.3675 8.40673C53.683 8.40673 53.071 8.60333 52.5556 8.95722C52.0322 9.30324 51.5652 9.80654 51.2028 10.4042ZM38.9627 5.53633H43.3111V25H38.9627V5.53633Z" fill="white"/>
<path fill-rule="evenodd" clip-rule="evenodd" d="M41.0067 1C39.9064 1 39.0134 1.89813 39.0134 3.00474C39.0134 4.16749 39.9064 5.0576 41.0067 5.00949C42.107 5.00949 43 4.11136 43 3.00474C43 1.89813 42.107 1 41.0067 1ZM14.926 9.17134C15.6436 10.1015 16.1539 11.1681 16.5207 12.3468L16.5366 12.3148C16.8954 13.5016 17.0549 14.7846 17.0549 16.1639C17.0549 17.5512 16.8954 18.8342 16.5446 20.013C16.1778 21.1918 15.6675 22.2743 14.9499 23.1404C14.2323 24.0145 13.3553 24.7281 12.2789 25.2414C11.5613 25.5541 10.7879 25.8107 9.96662 25.915C9.96662 25.915 8.42778 26.1635 6.63378 25.8107C6.01984 25.6984 5.45374 25.5541 4.93547 25.2975C4.88763 25.2975 4.88763 25.2975 4.83979 25.2414C4.83979 25.1932 4.78398 25.1932 4.78398 25.1932H4.74411C4.42518 25.0409 4.17004 24.8885 3.86705 24.68C3.19729 24.2149 2.63119 23.7097 2.11292 23.0923C1.39533 22.2102 0.885036 21.1918 0.518264 19.9649C0.159466 18.7861 0 17.503 0 16.1158C0 14.7846 0.159466 13.4535 0.510291 12.2827C0.877063 11.0478 1.38735 10.0294 2.10495 9.09916C2.82255 8.23312 3.69961 7.51141 4.73614 6.99819C5.69293 6.54913 6.7773 6.2845 8.00519 6.22837C8.83441 6.18026 9.55201 6.22837 10.1101 6.3246L10.8676 6.48498C10.8676 6.54111 10.9234 6.54111 10.9633 6.54111C11.0271 6.59724 11.0749 6.59724 11.1228 6.59724C11.2264 6.59724 11.338 6.6614 11.338 6.6614C11.641 6.74159 11.9998 6.90197 12.2948 7.06234C13.3314 7.56754 14.2084 8.24113 14.926 9.17134ZM35.9835 12.3468C35.6167 11.1681 35.1064 10.1015 34.3888 9.17134C33.6712 8.24113 32.7942 7.56754 31.7576 7.06234C31.4626 6.90197 31.1038 6.74159 30.8009 6.6614C30.8009 6.6614 30.6892 6.59724 30.5856 6.59724C30.5377 6.59724 30.4819 6.59724 30.4261 6.54111C30.3783 6.54111 30.3304 6.54111 30.3304 6.48498L29.565 6.3246C29.0069 6.22837 28.2893 6.18026 27.468 6.22837C26.2401 6.2845 25.1558 6.54913 24.199 6.99819C23.1624 7.51141 22.2854 8.23312 21.5678 9.09916C20.8502 10.0294 20.3399 11.0478 19.9731 12.2827C19.6223 13.4535 19.4628 14.7846 19.4628 16.1158C19.4628 17.503 19.6223 18.7861 19.9811 19.9649C20.3479 21.1437 20.906 22.2102 21.5757 23.0923C22.094 23.7097 22.6521 24.2149 23.3299 24.68C23.6329 24.8885 24.2468 25.1932 24.2468 25.1932C24.2468 25.1932 24.2946 25.1932 24.2946 25.2414C24.3288 25.2414 24.3447 25.2575 24.3594 25.2724C24.3722 25.2854 24.3841 25.2975 24.4063 25.2975C24.9245 25.5541 25.4827 25.6984 26.1046 25.8107C27.8986 26.1635 29.4374 25.915 29.4374 25.915C30.2587 25.8107 31.0321 25.5541 31.7497 25.2414C32.8261 24.7281 33.6952 24.0145 34.4207 23.1404C35.1383 22.2743 35.6486 21.1918 36.0154 20.013C36.3662 18.8342 36.5177 17.5512 36.5177 16.1639C36.5177 14.7846 36.3184 13.5016 36.0074 12.3148L35.9835 12.3468ZM23.9677 13.4695C24.175 12.6676 24.4302 11.8898 24.789 11.2723C25.1478 10.6629 25.6102 10.1497 26.1205 9.79681C26.6388 9.43596 27.2527 9.23549 27.9145 9.23549C28.5843 9.23549 29.1504 9.37983 29.6686 9.74068C30.1789 10.0935 30.5856 10.5426 30.9444 11.1199C31.3032 11.7374 31.5583 12.403 31.7656 13.2209C31.9809 14.0389 32.0846 14.8648 32.0846 15.787V16.0917C32.0846 17.0139 31.9809 17.9361 31.8294 18.754C31.6221 19.58 31.367 20.2937 31.0082 20.9191C30.6494 21.5286 30.1869 21.9857 29.6686 22.3465C29.1584 22.7074 28.5524 22.8597 27.8747 22.8597C27.2049 22.8597 26.5989 22.6993 26.0807 22.3465C25.5624 21.9857 25.0999 21.5286 24.7411 20.9031C24.3744 20.2937 24.1192 19.58 23.9119 18.754C23.7126 17.9361 23.6568 17.0139 23.6568 16.0917C23.7126 15.2096 23.8162 14.2955 23.9757 13.4775L23.9677 13.4695ZM4.56073 13.4695C4.76006 12.6676 5.0152 11.8898 5.374 11.2723C5.7328 10.6629 6.19525 10.1497 6.71352 9.79681C7.22381 9.43596 7.82978 9.23549 8.50751 9.23549C9.17727 9.23549 9.74337 9.37983 10.2616 9.74068C10.764 10.0935 11.1786 10.5426 11.5374 11.1199C11.8962 11.7374 12.1513 12.403 12.3586 13.2209C12.5659 14.0389 12.6775 14.8648 12.6775 15.787L12.6616 16.0917C12.6616 17.0139 12.5659 17.9361 12.4065 18.754C12.2071 19.58 11.944 20.2937 11.5852 20.9191C11.2344 21.5286 10.7719 21.9857 10.2616 22.3465C9.75134 22.7074 9.12943 22.8597 8.46764 22.8597C7.78991 22.8597 7.17597 22.6993 6.6577 22.3465C6.14741 21.9857 5.68496 21.5286 5.32616 20.9031C5.00723 20.3979 4.76803 19.6842 4.55275 18.8182C4.34545 17.9922 4.28963 17.054 4.28963 16.1398C4.28963 15.2176 4.34545 14.2955 4.54478 13.4775L4.56073 13.4695Z" fill="white"/>
</svg>

<svg xmlns="http://www.w3.org/2000/svg" viewBox="0 0 82 31">
  <path fill="" fill-rule="evenodd" d="M81.458 12.085c-.367-1.169-.877-2.226-1.594-3.148-.718-.923-1.594-1.59-2.63-2.091a4.689 4.689 0 00-.957-.398s-.112-.064-.215-.064c-.048 0-.104 0-.16-.055-.04 0-.095 0-.095-.056l-.757-.159c-.558-.095-1.276-.143-2.105-.095-1.227.055-2.311.318-3.267.763a8.036 8.036 0 00-2.63 2.083c-.718.922-1.228 1.932-1.595 3.156-.35 1.161-.51 2.481-.51 3.801 0 1.376.16 2.648.518 3.816a10.278 10.278 0 001.594 3.101 8.496 8.496 0 001.754 1.574c.303.207.558.358.877.51h.04s.047 0 .047.047c.034 0 .05.016.065.03.013.014.025.026.047.026.518.254 1.084.397 1.697.509 1.794.35 3.332.103 3.332.103.821-.104 1.594-.358 2.312-.668a7.773 7.773 0 002.67-2.083c.717-.859 1.227-1.932 1.594-3.1.35-1.17.51-2.442.51-3.817 0-1.368-.207-2.64-.518-3.817l-.024.032zm-12.012 1.113c.208-.795.463-1.566.821-2.178.359-.604.821-1.113 1.331-1.463A3.13 3.13 0 0173.392 9c.67 0 1.235.143 1.753.501.51.35.917.795 1.276 1.368.358.612.621 1.272.82 2.083.216.81.32 1.63.32 2.544v.302c0 .914-.104 1.829-.256 2.64-.207.819-.462 1.526-.82 2.146A4.486 4.486 0 0175.144 22c-.51.358-1.116.509-1.793.509-.67 0-1.275-.16-1.793-.51a4.38 4.38 0 01-1.34-1.43c-.366-.605-.621-1.312-.828-2.131-.2-.811-.256-1.726-.256-2.64.056-.874.16-1.78.32-2.592l-.009-.008zM58.2 25.713l-1.993 2.282L56 28.2 56.207 31h3.077l3.236-3.61V15.91l-.096-.875-4.224 2.178v8.5z" clip-rule="evenodd"/>
  <path fill="" fill-rule="evenodd" d="M32.279 5.222l-2.013-2.218L30 2.815 30.21 0l3.1.047 3.334 3.57v11.616l-.097.645-4.268-2.202V5.222zm28.57 3.122c.726.912 1.241 1.958 1.612 3.114l.016-.031c.362 1.163.523 2.422.523 3.774 0 1.36-.161 2.62-.515 3.775-.37 1.156-.886 2.218-1.61 3.067a7.756 7.756 0 01-2.699 2.06c-.724.307-1.505.559-2.335.661 0 0-1.554.244-3.366-.102-.62-.11-1.192-.252-1.707-.503-.03 0-.043-.015-.057-.03-.012-.013-.024-.026-.048-.026 0-.047-.056-.047-.056-.047h-.04a6.204 6.204 0 01-.886-.503 8.737 8.737 0 01-1.772-1.557 10.09 10.09 0 01-1.61-3.067c-.355-1.156-.516-2.414-.516-3.775 0-1.305.153-2.61.508-3.759.37-1.211.885-2.21 1.61-3.122a8.092 8.092 0 012.658-2.06c.966-.44 2.061-.7 3.301-.755.838-.047 1.562 0 2.126.094l.765.157c0 .055.056.055.097.055a.211.211 0 00.16.055c.105 0 .218.063.218.063.306.079.669.236.967.394 1.046.495 1.932 1.156 2.657 2.068zm-9.646 2.06c-.363.606-.62 1.369-.822 2.155l.008.008c-.206.792-.264 1.676-.32 2.53l-.002.034c0 .904.049 1.808.258 2.61.21.81.467 1.51.83 2.108.362.613.829 1.062 1.344 1.416.524.346 1.144.503 1.828.503.669 0 1.297-.15 1.812-.503a4.433 4.433 0 001.337-1.4c.362-.614.628-1.314.83-2.124.16-.802.273-1.706.273-2.61v-.3c0-.904-.113-1.714-.322-2.516-.21-.802-.467-1.455-.83-2.06a4.574 4.574 0 00-1.288-1.353c-.523-.354-1.095-.495-1.772-.495-.684 0-1.296.196-1.811.55-.524.346-.99.85-1.353 1.447zm-12.24-4.868h4.348V25h-4.348V5.536z" clip-rule="evenodd"/>
  <path fill="" fill-rule="evenodd" d="M41.007 1a2 2 0 00-1.994 2.005c0 1.162.893 2.053 1.994 2.004A2 2 0 0043 3.005 2 2 0 0041.007 1zM14.926 9.171c.718.93 1.228 1.997 1.595 3.176l.016-.032c.358 1.187.518 2.47.518 3.849 0 1.387-.16 2.67-.51 3.849-.367 1.179-.878 2.261-1.595 3.127a7.71 7.71 0 01-2.671 2.101c-.718.313-1.491.57-2.312.674 0 0-1.54.248-3.333-.104-.614-.113-1.18-.257-1.699-.514-.047 0-.047 0-.095-.056 0-.048-.056-.048-.056-.048h-.04a6.096 6.096 0 01-.877-.513 8.736 8.736 0 01-1.754-1.588c-.718-.882-1.228-1.9-1.595-3.127C.16 18.786 0 17.503 0 16.115c0-1.33.16-2.661.51-3.832.367-1.235.877-2.254 1.595-3.184A8.05 8.05 0 014.736 7c.957-.45 2.041-.714 3.27-.77.828-.049 1.546 0 2.104.096l.758.16c0 .056.055.056.095.056.064.056.112.056.16.056.103 0 .215.064.215.064.303.08.662.241.957.401 1.036.506 1.913 1.18 2.631 2.11zm21.057 3.176c-.366-1.179-.877-2.245-1.594-3.176-.718-.93-1.595-1.603-2.631-2.109a4.671 4.671 0 00-.957-.4s-.112-.065-.215-.065c-.048 0-.104 0-.16-.056-.048 0-.096 0-.096-.056l-.765-.16a9.352 9.352 0 00-2.097-.097c-1.228.057-2.312.321-3.269.77A8.049 8.049 0 0021.568 9.1c-.718.93-1.228 1.949-1.595 3.184-.35 1.17-.51 2.502-.51 3.833 0 1.387.16 2.67.518 3.849a10.22 10.22 0 001.595 3.127 8.525 8.525 0 001.754 1.588c.303.209.917.513.917.513s.048 0 .048.048c.034 0 .05.017.064.031.013.013.025.026.047.026.518.256 1.077.4 1.699.513 1.794.352 3.332.104 3.332.104.822-.104 1.595-.36 2.313-.674a7.784 7.784 0 002.67-2.1c.718-.867 1.229-1.95 1.595-3.128.351-1.179.503-2.462.503-3.85 0-1.378-.2-2.661-.51-3.848l-.025.032zM23.968 13.47c.207-.802.462-1.58.821-2.198.359-.61.821-1.122 1.331-1.475a3.114 3.114 0 011.794-.562c.67 0 1.236.145 1.755.506.51.353.917.802 1.275 1.379.36.617.614 1.283.822 2.1.215.819.319 1.645.319 2.567v.305c0 .922-.104 1.844-.256 2.662-.207.826-.462 1.54-.82 2.165a4.509 4.509 0 01-1.34 1.427c-.51.361-1.117.514-1.794.514-.67 0-1.276-.16-1.794-.514a4.404 4.404 0 01-1.34-1.443c-.367-.61-.622-1.323-.83-2.149-.198-.818-.254-1.74-.254-2.662.056-.882.16-1.796.319-2.614l-.008-.008zm-19.407 0c.2-.802.454-1.58.813-2.198.359-.61.821-1.122 1.34-1.475a3.06 3.06 0 011.794-.562c.67 0 1.235.145 1.754.506.502.353.917.802 1.275 1.379.36.617.614 1.283.822 2.1.207.819.319 1.645.319 2.567l-.016.305c0 .922-.096 1.844-.256 2.662-.199.826-.462 1.54-.82 2.165a4.466 4.466 0 01-1.324 1.427c-.51.361-1.133.514-1.794.514-.678 0-1.292-.16-1.81-.514a4.47 4.47 0 01-1.332-1.443c-.319-.505-.558-1.219-.773-2.085-.208-.826-.263-1.764-.263-2.678 0-.922.055-1.845.255-2.663l.016-.008z" clip-rule="evenodd"/>
</svg>
